;FLAVOR:UltiGCode
;TIME:10734
;MATERIAL:19570
;MATERIAL2:0
;NOZZLE_DIAMETER:0.4
;MINX:69.295
;MINY:58.795
;MINZ:0.3
;MAXX:161.399
;MAXY:164.205
;MAXZ:30
;TARGET_MACHINE.NAME:Ultimaker 2
;Generated with Cura_SteamEngine 5.7.2
M82 ;absolute extrusion mode
G0 F3000 Y50 ;avoid prime blob
G92 E0
G92 E0
G10
;LAYER_COUNT:199
;LAYER:0
M107
G0 F7200 X72.952 Y78.748 Z0.3
;TYPE:SKIRT
G11
G1 F900 X76.024 Y77.745 E0.38779
G1 X115.708 Y77.745 E5.14987
G1 X116.071 Y77.846 E5.19509
G1 X116.358 Y75.212 E5.51304
G1 X116.838 Y73.24 E5.75659
G1 X118.496 Y69.269 E6.27297
G1 X119.73 Y67.309 E6.55091
G1 X122.106 Y64.541 E6.98866
G1 X124.141 Y62.807 E7.30948
G1 X127.579 Y60.732 E7.79136
G1 X129.38 Y59.987 E8.02524
G1 X133.643 Y58.969 E8.55119
G1 X135.613 Y58.814 E8.78832
G1 X154.597 Y58.795 E11.0664
G1 X156.658 Y59.251 E11.3197
G1 X158.378 Y60.38 E11.56659
G1 X160.396 Y62.461 E11.91444
G1 X161.399 Y65.524 E12.30121
G1 X161.399 Y157.384 E23.32441
G1 X160.979 Y159.312 E23.56119
G1 X159.869 Y161.132 E23.81701
G1 X157.724 Y163.213 E24.17564
G1 X154.664 Y164.205 E24.56165
G1 X135.46 Y164.169 E26.86614
G1 X132.415 Y163.836 E27.23371
G1 X130.501 Y163.374 E27.46999
G1 X126.435 Y161.678 E27.99865
G1 X124.336 Y160.34 E28.29736
G1 X121.773 Y158.124 E28.70394
G1 X119.886 Y155.896 E29.0543
G1 X117.997 Y152.754 E29.49424
G1 X117.142 Y150.691 E29.76222
G1 X116.163 Y146.518 E30.27657
G1 X116.062 Y145.064 E30.45147
G1 X115.472 Y145.255 E30.52589
G1 X76.116 Y145.255 E35.24861
G1 X74.188 Y144.835 E35.4854
G1 X72.368 Y143.725 E35.74121
G1 X70.286 Y141.579 E36.10001
G1 X69.295 Y138.522 E36.48564
G1 X69.295 Y84.175 E43.00728
G1 X70.185 Y81.557 E43.3391
G1 X70.385 Y81.241 E43.38398
G1 X72.952 Y78.748 E43.81338
G0 F7200 X73.165 Y79.099
G1 F900 X76.087 Y78.145 E44.18223
G1 X115.708 Y78.145 E48.93675
G1 X116.415 Y78.386 E49.02639
G1 X116.747 Y75.307 E49.39801
G1 X117.227 Y73.335 E49.64156
G1 X118.835 Y69.482 E50.14257
G1 X120.034 Y67.57 E50.41339
G1 X122.41 Y64.802 E50.85114
G1 X124.348 Y63.149 E51.1568
G1 X127.732 Y61.102 E51.6314
G1 X129.533 Y60.357 E51.86528
G1 X133.674 Y59.368 E52.37617
G1 X135.644 Y59.213 E52.6133
G1 X154.552 Y59.195 E54.88226
G1 X156.501 Y59.626 E55.1218
G1 X158.123 Y60.691 E55.35464
G1 X160.045 Y62.673 E55.68595
G1 X160.999 Y65.587 E56.05389
G1 X160.999 Y157.34 E67.06425
G1 X160.602 Y159.163 E67.28814
G1 X159.556 Y160.878 E67.52919
G1 X157.512 Y162.861 E67.87094
G1 X154.6 Y163.805 E68.23828
G1 X135.503 Y163.771 E70.52992
G1 X132.509 Y163.447 E70.8913
G1 X130.595 Y162.985 E71.12758
G1 X126.649 Y161.34 E71.64059
G1 X124.598 Y160.037 E71.93218
G1 X122.035 Y157.821 E72.33876
G1 X120.229 Y155.689 E72.67405
G1 X118.367 Y152.601 E73.10677
G1 X117.512 Y150.538 E73.37475
G1 X116.562 Y146.49 E73.8737
G1 X116.425 Y144.526 E74.10996
G1 X115.408 Y144.855 E74.23822
G1 X76.16 Y144.855 E78.94798
G1 X74.337 Y144.458 E79.17187
G1 X72.622 Y143.412 E79.41293
G1 X70.638 Y141.367 E79.75484
G1 X69.695 Y138.458 E80.1218
G1 X69.695 Y84.242 E86.62772
G1 X70.564 Y81.686 E86.95169
G1 X70.664 Y81.528 E86.97412
G1 X73.165 Y79.099 E87.39249
G0 F7200 X73.378 Y79.45
G1 F900 X76.15 Y78.545 E87.74241
G1 X115.641 Y78.545 E92.48133
G1 X116.817 Y78.946 E92.63043
G1 X116.821 Y78.352 E92.70171
G1 X117.136 Y75.402 E93.05772
G1 X117.616 Y73.43 E93.30127
G1 X119.174 Y69.694 E93.78702
G1 X120.338 Y67.831 E94.05062
G1 X122.714 Y65.063 E94.48837
G1 X124.555 Y63.491 E94.77887
G1 X127.885 Y61.472 E95.24618
G1 X129.686 Y60.727 E95.48007
G1 X133.705 Y59.767 E95.97591
G1 X135.675 Y59.612 E96.21304
G1 X154.507 Y59.595 E98.47288
G1 X156.344 Y60.001 E98.69864
G1 X157.868 Y61.002 E98.91745
G1 X159.694 Y62.885 E99.2322
G1 X160.599 Y65.65 E99.58132
G1 X160.599 Y157.296 E110.57884
G1 X160.225 Y159.014 E110.78983
G1 X159.243 Y160.624 E111.01613
G1 X157.3 Y162.509 E111.34099
G1 X154.536 Y163.405 E111.68966
G1 X135.546 Y163.373 E113.96846
G1 X132.603 Y163.058 E114.32364
G1 X130.689 Y162.596 E114.55991
G1 X126.863 Y161.002 E115.05729
G1 X124.86 Y159.734 E115.34176
G1 X122.297 Y157.518 E115.74834
G1 X120.535 Y155.431 E116.0761
G1 X118.737 Y152.448 E116.49406
G1 X117.882 Y150.385 E116.76204
G1 X116.961 Y146.462 E117.2456
G1 X116.789 Y143.988 E117.54319
G1 X115.344 Y144.455 E117.72542
G1 X76.204 Y144.455 E122.42222
G1 X74.486 Y144.081 E122.63321
G1 X72.876 Y143.099 E122.85951
G1 X70.99 Y141.155 E123.18454
G1 X70.095 Y138.394 E123.53283
G1 X70.095 Y84.309 E130.02303
G1 X70.943 Y81.815 E130.33914
G1 X73.378 Y79.45 E130.74647
G0 F7200 X73.591 Y79.801
G1 F900 X76.213 Y78.945 E131.07746
G1 X115.574 Y78.945 E135.80078
G1 X117.214 Y79.504 E136.00869
G1 X117.219 Y78.394 E136.1419
G1 X117.525 Y75.497 E136.49147
G1 X118.005 Y73.525 E136.73502
G1 X119.514 Y69.905 E137.20565
G1 X120.642 Y68.092 E137.46188
G1 X123.018 Y65.324 E137.89963
G1 X124.814 Y63.796 E138.1826
G1 X128.038 Y61.842 E138.63499
G1 X129.839 Y61.097 E138.86887
G1 X133.736 Y60.166 E139.34967
G1 X135.706 Y60.011 E139.5868
G1 X154.462 Y59.995 E141.83752
G1 X156.188 Y60.377 E142.04965
G1 X157.611 Y61.311 E142.25391
G1 X159.343 Y63.097 E142.55246
G1 X160.199 Y65.713 E142.88275
G1 X160.199 Y157.252 E153.86743
G1 X159.848 Y158.865 E154.06552
G1 X158.93 Y160.37 E154.27707
G1 X157.088 Y162.157 E154.58504
G1 X154.472 Y163.005 E154.91504
G1 X135.588 Y162.975 E157.18112
G1 X132.697 Y162.669 E157.52998
G1 X130.783 Y162.207 E157.76625
G1 X127.076 Y160.664 E158.24809
G1 X125.122 Y159.431 E158.52535
G1 X122.559 Y157.215 E158.93193
G1 X120.841 Y155.173 E159.25216
G1 X119.107 Y152.295 E159.65536
G1 X118.252 Y150.232 E159.92334
G1 X117.36 Y146.434 E160.3915
G1 X117.189 Y143.994 E160.68502
G1 X117.19 Y143.437 E160.75186
G1 X115.28 Y144.055 E160.99276
G1 X76.248 Y144.055 E165.6766
G1 X74.635 Y143.704 E165.87469
G1 X73.13 Y142.786 E166.08623
G1 X71.342 Y140.943 E166.39437
G1 X70.495 Y138.33 E166.72399
G1 X70.495 Y84.376 E173.19847
G1 X71.291 Y82.035 E173.49519
G1 X73.591 Y79.801 E173.87995
G0 F7200 X73.804 Y80.152
G1 F900 X76.276 Y79.345 E174.192
G1 X115.507 Y79.345 E178.89972
G1 X117.612 Y80.063 E179.16661
G1 X117.617 Y78.436 E179.36185
G1 X117.914 Y75.592 E179.70498
G1 X118.394 Y73.62 E179.94853
G1 X119.854 Y70.116 E180.40405
G1 X120.946 Y68.353 E180.65291
G1 X123.322 Y65.585 E181.09066
G1 X125.073 Y64.101 E181.36609
G1 X128.191 Y62.212 E181.80356
G1 X129.992 Y61.467 E182.03744
G1 X133.767 Y60.565 E182.50319
G1 X135.737 Y60.41 E182.74032
G1 X154.417 Y60.395 E184.98192
G1 X156.031 Y60.752 E185.18028
G1 X157.356 Y61.622 E185.37049
G1 X158.992 Y63.309 E185.65249
G1 X159.799 Y65.776 E185.96397
G1 X159.799 Y157.208 E196.93581
G1 X159.471 Y158.716 E197.121
G1 X158.617 Y160.116 E197.31779
G1 X156.876 Y161.805 E197.60887
G1 X154.408 Y162.605 E197.9202
G1 X135.63 Y162.577 E200.17356
G1 X132.791 Y162.28 E200.5161
G1 X130.877 Y161.818 E200.75238
G1 X127.289 Y160.325 E201.21873
G1 X125.383 Y159.128 E201.48881
G1 X122.865 Y156.957 E201.88777
G1 X121.147 Y154.915 E202.208
G1 X119.477 Y152.142 E202.59645
G1 X118.622 Y150.079 E202.86443
G1 X117.759 Y146.406 E203.31719
G1 X117.589 Y143.994 E203.60735
G1 X117.59 Y142.886 E203.74031
G1 X115.216 Y143.655 E204.03976
G1 X76.292 Y143.655 E208.71064
G1 X74.784 Y143.327 E208.89583
G1 X73.384 Y142.473 E209.09262
G1 X71.694 Y140.731 E209.38387
G1 X70.895 Y138.266 E209.69482
G1 X70.895 Y84.443 E216.15358
G1 X71.639 Y82.255 E216.4309
G1 X73.804 Y80.152 E216.79309
G0 F7200 X74.017 Y80.503
G1 F900 X76.339 Y79.745 E217.0862
G1 X115.44 Y79.745 E221.77832
G1 X117.475 Y80.437 E222.03626
G1 X118.01 Y80.988 E222.12842
G1 X118.015 Y78.477 E222.42974
G1 X118.303 Y75.687 E222.76632
G1 X118.783 Y73.715 E223.00987
G1 X120.195 Y70.326 E223.45043
G1 X121.25 Y68.614 E223.69175
G1 X123.626 Y65.846 E224.1295
G1 X125.331 Y64.407 E224.39723
G1 X128.344 Y62.582 E224.81994
G1 X130.145 Y61.837 E225.05382
G1 X133.798 Y60.964 E225.50452
G1 X135.768 Y60.809 E225.74166
G1 X154.372 Y60.795 E227.97414
G1 X155.874 Y61.127 E228.15873
G1 X157.101 Y61.933 E228.33489
G1 X158.641 Y63.521 E228.60034
G1 X159.399 Y65.839 E228.893
G1 X159.399 Y157.164 E239.852
G1 X159.094 Y158.567 E240.02429
G1 X158.304 Y159.862 E240.20632
G1 X156.664 Y161.453 E240.48051
G1 X154.344 Y162.205 E240.77317
G1 X135.671 Y162.179 E243.01394
G1 X132.885 Y161.891 E243.35004
G1 X130.971 Y161.429 E243.58631
G1 X127.502 Y159.986 E244.03717
G1 X125.596 Y158.789 E244.30726
G1 X123.171 Y156.699 E244.69142
G1 X121.453 Y154.657 E245.01165
G1 X119.847 Y151.989 E245.38534
G1 X118.992 Y149.926 E245.65332
G1 X118.158 Y146.378 E246.09068
G1 X117.989 Y143.994 E246.37748
G1 X117.99 Y141.999 E246.61688
G1 X117.469 Y142.504 E246.70395
G1 X115.152 Y143.255 E246.99623
G1 X76.336 Y143.255 E251.65415
G1 X74.933 Y142.95 E251.82644
G1 X73.638 Y142.16 E252.00848
G1 X72.046 Y140.519 E252.28284
G1 X71.295 Y138.202 E252.57512
G1 X71.295 Y84.51 E259.01816
G1 X71.987 Y82.475 E259.27609
G1 X74.017 Y80.503 E259.61571
G0 F7200 X74.23 Y80.854
G1 F900 X76.402 Y80.145 E259.88988
G1 X115.373 Y80.145 E264.5664
G1 X117.255 Y80.785 E264.80494
G1 X118.409 Y81.972 E265.0036
G1 X118.413 Y78.518 E265.41808
G1 X118.692 Y75.782 E265.7481
G1 X119.172 Y73.81 E265.99165
G1 X120.536 Y70.536 E266.41727
G1 X121.591 Y68.824 E266.65858
G1 X123.884 Y66.152 E267.0811
G1 X125.589 Y64.713 E267.34883
G1 X128.497 Y62.952 E267.75679
G1 X130.298 Y62.207 E267.99067
G1 X133.829 Y61.363 E268.42633
G1 X135.799 Y61.208 E268.66346
G1 X154.327 Y61.195 E270.88682
G1 X155.718 Y61.503 E271.05778
G1 X156.844 Y62.242 E271.2194
G1 X158.29 Y63.733 E271.46864
G1 X158.999 Y65.902 E271.74248
G1 X158.999 Y157.12 E282.68864
G1 X158.717 Y158.418 E282.84803
G1 X157.991 Y159.608 E283.01531
G1 X156.452 Y161.101 E283.27261
G1 X154.28 Y161.805 E283.5466
G1 X135.712 Y161.781 E285.77476
G1 X132.979 Y161.502 E286.10443
G1 X131.065 Y161.04 E286.3407
G1 X127.715 Y159.647 E286.77607
G1 X125.809 Y158.45 E287.04616
G1 X123.477 Y156.441 E287.41552
G1 X121.759 Y154.399 E287.73575
G1 X120.217 Y151.836 E288.09468
G1 X119.362 Y149.773 E288.36266
G1 X118.557 Y146.35 E288.78463
G1 X118.389 Y143.994 E289.06807
G1 X118.39 Y141.053 E289.42099
G1 X117.257 Y142.152 E289.6104
G1 X115.088 Y142.855 E289.88401
G1 X76.38 Y142.855 E294.52897
G1 X75.082 Y142.573 E294.68836
G1 X73.892 Y141.847 E294.85564
G1 X72.398 Y140.307 E295.11311
G1 X71.695 Y138.138 E295.38672
G1 X71.695 Y84.577 E301.81404
G1 X72.335 Y82.695 E302.05258
G1 X74.23 Y80.854 E302.36963
G0 F7200 X74.443 Y81.205
G1 F900 X76.465 Y80.545 E302.62487
G1 X115.306 Y80.545 E307.28579
G1 X117.035 Y81.133 E307.50494
G1 X118.681 Y82.827 E307.78837
G1 X118.808 Y83.085 E307.82288
G1 X118.811 Y78.558 E308.36612
G1 X119.081 Y75.877 E308.68947
G1 X119.561 Y73.905 E308.93302
G1 X120.877 Y70.746 E309.34368
G1 X121.932 Y69.034 E309.58499
G1 X124.142 Y66.458 E309.99228
G1 X125.847 Y65.019 E310.26001
G1 X128.65 Y63.322 E310.65321
G1 X130.451 Y62.577 E310.8871
G1 X133.86 Y61.762 E311.3077
G1 X135.83 Y61.607 E311.54483
G1 X154.281 Y61.595 E313.75895
G1 X155.563 Y61.879 E313.91652
G1 X156.587 Y62.551 E314.0635
G1 X157.939 Y63.945 E314.29653
G1 X158.599 Y65.965 E314.55154
G1 X158.599 Y157.076 E325.48486
G1 X158.34 Y158.269 E325.63136
G1 X157.678 Y159.354 E325.78388
G1 X156.24 Y160.749 E326.0243
G1 X154.216 Y161.405 E326.27962
G1 X135.752 Y161.383 E328.4953
G1 X133.073 Y161.113 E328.81841
G1 X131.159 Y160.651 E329.05468
G1 X127.928 Y159.308 E329.47456
G1 X126.022 Y158.111 E329.74465
G1 X123.783 Y156.183 E330.09921
G1 X122.065 Y154.141 E330.41944
G1 X120.587 Y151.683 E330.76362
G1 X119.732 Y149.62 E331.0316
G1 X118.956 Y146.321 E331.43828
G1 X118.789 Y143.994 E331.71824
G1 X118.79 Y139.902 E332.20928
G1 X118.484 Y140.404 E332.27983
G1 X117.045 Y141.8 E332.52041
G1 X115.024 Y142.455 E332.77535
G1 X76.424 Y142.455 E337.40735
G1 X75.231 Y142.196 E337.55385
G1 X74.146 Y141.534 E337.70637
G1 X72.75 Y140.095 E337.94695
G1 X72.095 Y138.074 E338.20189
G1 X72.095 Y84.644 E344.61349
G1 X72.683 Y82.915 E344.83264
G1 X74.443 Y81.205 E345.12711
G0 F7200 X74.656 Y81.556
G1 F900 X73.031 Y83.135 E345.39901
G1 X72.495 Y84.711 E345.59877
G1 X72.495 Y138.01 E351.99465
G1 X73.102 Y139.883 E352.23092
G1 X74.4 Y141.221 E352.45461
G1 X75.38 Y141.819 E352.59238
G1 X76.468 Y142.055 E352.72598
G1 X114.96 Y142.055 E357.34502
G1 X116.833 Y141.448 E357.58128
G1 X118.171 Y140.15 E357.80498
G1 X118.769 Y139.17 E357.94275
G1 X119.005 Y138.082 E358.07634
G1 X119.005 Y84.978 E364.44882
G1 X118.394 Y83.106 E364.68513
G1 X116.815 Y81.481 E364.95702
G1 X115.239 Y80.945 E365.15678
G1 X76.528 Y80.945 E369.8021
G1 X74.656 Y81.556 E370.0384
G0 F7200 X74.869 Y81.907
G1 F900 X73.379 Y83.355 E370.28773
G1 X72.895 Y84.778 E370.46809
G1 X72.895 Y137.949 E376.84861
G1 X73.453 Y139.67 E377.06572
G1 X74.652 Y140.906 E377.27236
G1 X75.531 Y141.442 E377.3959
G1 X76.512 Y141.655 E377.51636
G1 X114.899 Y141.655 E382.1228
G1 X116.62 Y141.097 E382.33991
G1 X117.856 Y139.898 E382.54655
G1 X118.392 Y139.019 E382.67009
G1 X118.605 Y138.038 E382.79056
G1 X118.605 Y85.041 E389.1502
G1 X118.043 Y83.319 E389.36756
G1 X116.595 Y81.829 E389.61689
G1 X115.172 Y81.345 E389.79725
G1 X76.591 Y81.345 E394.42697
G1 X74.869 Y81.907 E394.64434
G0 F7200 X75.082 Y82.258
G1 F900 X73.727 Y83.575 E394.87109
G1 X73.295 Y84.845 E395.03206
G1 X73.295 Y137.888 E401.39722
G1 X73.804 Y139.457 E401.59516
G1 X74.904 Y140.591 E401.78475
G1 X75.682 Y141.065 E401.89407
G1 X76.556 Y141.255 E402.0014
G1 X114.838 Y141.255 E406.59524
G1 X116.407 Y140.746 E406.79318
G1 X117.541 Y139.646 E406.98276
G1 X118.015 Y138.868 E407.09208
G1 X118.205 Y137.994 E407.19941
G1 X118.205 Y85.104 E413.54621
G1 X117.692 Y83.532 E413.74464
G1 X116.375 Y82.177 E413.97139
G1 X115.105 Y81.745 E414.13237
G1 X76.654 Y81.745 E418.74649
G1 X75.082 Y82.258 E418.94492
G0 F7200 X75.295 Y82.609
G1 F900 X74.075 Y83.795 E419.1491
G1 X73.695 Y84.912 E419.29068
G1 X73.695 Y137.827 E425.64048
G1 X74.155 Y139.245 E425.81937
G1 X75.153 Y140.274 E425.99139
G1 X75.833 Y140.688 E426.08692
G1 X76.6 Y140.855 E426.18112
G1 X114.777 Y140.855 E430.76236
G1 X116.195 Y140.395 E430.94125
G1 X117.224 Y139.397 E431.11326
G1 X117.638 Y138.717 E431.2088
G1 X117.805 Y137.95 E431.30299
G1 X117.805 Y85.167 E437.63695
G1 X117.341 Y83.745 E437.81645
G1 X116.155 Y82.525 E438.02062
G1 X115.038 Y82.145 E438.16221
G1 X76.717 Y82.145 E442.76073
G1 X75.295 Y82.609 E442.94022
G0 F7200 X75.508 Y82.96
G1 F900 X74.423 Y84.015 E443.12183
G1 X74.095 Y84.979 E443.24402
G1 X74.095 Y137.766 E449.57846
G1 X74.506 Y139.033 E449.7383
G1 X75.402 Y139.957 E449.89275
G1 X75.984 Y140.311 E449.97449
G1 X76.644 Y140.455 E450.05556
G1 X114.716 Y140.455 E454.6242
G1 X115.983 Y140.044 E454.78404
G1 X116.907 Y139.148 E454.93849
G1 X117.261 Y138.566 E455.02023
G1 X117.405 Y137.906 E455.10129
G1 X117.405 Y85.23 E461.42241
G1 X116.99 Y83.958 E461.58297
G1 X115.935 Y82.873 E461.76457
G1 X114.971 Y82.545 E461.88677
G1 X76.78 Y82.545 E466.46969
G1 X75.508 Y82.96 E466.63025
G0 F7200 X75.721 Y83.311
G1 F900 X74.771 Y84.235 E466.78928
G1 X74.495 Y85.046 E466.89208
G1 X74.495 Y137.705 E473.21116
G1 X74.857 Y138.821 E473.35195
G1 X75.651 Y139.64 E473.48883
G1 X76.135 Y139.934 E473.55679
G1 X76.688 Y140.055 E473.62472
G1 X114.655 Y140.055 E478.18076
G1 X115.771 Y139.693 E478.32154
G1 X116.59 Y138.899 E478.45843
G1 X116.884 Y138.415 E478.52638
G1 X117.005 Y137.862 E478.59431
G1 X117.005 Y85.293 E484.90259
G1 X116.639 Y84.171 E485.04422
G1 X115.715 Y83.221 E485.20325
G1 X114.904 Y82.945 E485.30605
G1 X76.843 Y82.945 E489.87337
G1 X75.721 Y83.311 E490.01499
G0 F7200 X75.934 Y83.662
G1 F900 X76.906 Y83.345 E490.13768
G1 X114.837 Y83.345 E494.6894
G1 X115.495 Y83.569 E494.77281
G1 X116.288 Y84.384 E494.90926
G1 X116.605 Y85.356 E495.03195
