;FLAVOR:UltiGCode
;TIME:10741
;MATERIAL:19668
;MATERIAL2:0
;NOZZLE_DIAMETER:0.4
;MINX:46.091
;MINY:58.795
;MINZ:0.3
;MAXX:143.248
;MAXY:164.205
;MAXZ:30
;TARGET_MACHINE.NAME:Ultimaker 2
;Generated with Cura_SteamEngine 5.7.2
M82 ;absolute extrusion mode
G0 F3000 Y50 ;avoid prime blob
G92 E0
G92 E0
G10
;LAYER_COUNT:199
;LAYER:0
M107
G0 F7200 X49.748 Y59.798 Z0.3
;TYPE:SKIRT
G11
G1 F900 X52.827 Y58.795 E0.38859
G1 X72.012 Y58.83 E2.69079
G1 X74.867 Y59.128 E3.03525
G1 X77.343 Y59.74 E3.34132
G1 X80.589 Y61.084 E3.76291
G1 X83.599 Y62.98 E4.18979
G1 X85.266 Y64.411 E4.45343
G1 X87.833 Y67.43 E4.92896
G1 X89.459 Y70.18 E5.31233
G1 X90.446 Y72.614 E5.62751
G1 X91.291 Y76.23 E6.07312
G1 X91.501 Y79.006 E6.40719
G1 X91.5 Y80.204 E6.55095
G1 X93.995 Y77.781 E6.96831
G1 X97.067 Y76.778 E7.3561
G1 X136.818 Y76.778 E12.12622
G1 X139.436 Y77.668 E12.45803
G1 X139.752 Y77.868 E12.50291
G1 X142.245 Y80.435 E12.93231
G1 X143.248 Y83.507 E13.3201
G1 X143.248 Y137.467 E19.7953
G1 X142.828 Y139.395 E20.03209
G1 X141.718 Y141.215 E20.2879
G1 X139.572 Y143.297 E20.6467
G1 X136.515 Y144.288 E21.03234
G1 X97.159 Y144.288 E25.75506
G1 X95.231 Y143.868 E25.99184
G1 X93.411 Y142.758 E26.24766
G1 X91.47 Y140.758 E26.5821
G1 X91.465 Y144.743 E27.0603
G1 X91.117 Y147.842 E27.43452
G1 X90.528 Y150.155 E27.72093
G1 X89.337 Y153.047 E28.09625
G1 X87.228 Y156.39 E28.57057
G1 X85.221 Y158.62 E28.93059
G1 X83.287 Y160.241 E29.23341
G1 X79.911 Y162.268 E29.70594
G1 X78.11 Y163.013 E29.93982
G1 X73.846 Y164.031 E30.46588
G1 X71.877 Y164.186 E30.70289
G1 X52.922 Y164.205 E32.97749
G1 X50.984 Y163.785 E33.21545
G1 X49.164 Y162.675 E33.47127
G1 X47.082 Y160.529 E33.83007
G1 X46.091 Y157.472 E34.2157
G1 X46.091 Y65.225 E45.28534
G1 X46.981 Y62.607 E45.61716
G1 X47.181 Y62.291 E45.66203
G1 X49.748 Y59.798 E46.09144
G0 F7200 X49.961 Y60.149
G1 F900 X52.889 Y59.195 E46.46097
G1 X71.97 Y59.228 E48.7507
G1 X74.825 Y59.526 E49.09516
G1 X77.19 Y60.11 E49.38748
G1 X80.436 Y61.454 E49.80907
G1 X83.338 Y63.284 E50.22077
G1 X85.005 Y64.715 E50.48441
G1 X87.528 Y67.689 E50.95241
G1 X89.089 Y70.331 E51.32065
G1 X90.056 Y72.705 E51.62826
G1 X90.901 Y76.321 E52.07387
G1 X91.101 Y79.006 E52.39696
G1 X91.099 Y82.212 E52.78168
G1 X91.638 Y80.628 E52.98247
G1 X94.208 Y78.132 E53.41238
G1 X97.13 Y77.178 E53.78123
G1 X136.751 Y77.178 E58.53575
G1 X139.307 Y78.047 E58.85971
G1 X139.465 Y78.147 E58.88215
G1 X141.894 Y80.648 E59.30052
G1 X142.848 Y83.57 E59.66938
G1 X142.848 Y137.423 E66.13174
G1 X142.451 Y139.246 E66.35562
G1 X141.405 Y140.961 E66.59668
G1 X139.36 Y142.945 E66.93859
G1 X136.451 Y143.888 E67.30556
G1 X97.203 Y143.888 E72.01532
G1 X95.38 Y143.491 E72.2392
G1 X93.665 Y142.445 E72.48026
G1 X91.681 Y140.4 E72.82217
G1 X91.072 Y138.522 E73.05908
G1 X91.067 Y144.699 E73.80033
G1 X90.729 Y147.743 E74.16785
G1 X90.14 Y150.056 E74.45427
G1 X88.967 Y152.894 E74.82277
G1 X86.93 Y156.123 E75.28091
G1 X84.964 Y158.313 E75.63407
G1 X83.03 Y159.934 E75.93689
G1 X79.758 Y161.898 E76.39483
G1 X77.957 Y162.643 E76.62871
G1 X73.815 Y163.632 E77.13972
G1 X71.846 Y163.787 E77.37674
G1 X52.965 Y163.805 E79.64246
G1 X51.133 Y163.408 E79.8674
G1 X49.418 Y162.362 E80.10846
G1 X47.434 Y160.317 E80.45037
G1 X46.491 Y157.408 E80.81733
G1 X46.491 Y65.292 E91.87125
G1 X47.36 Y62.736 E92.19521
G1 X47.46 Y62.578 E92.21765
G1 X49.961 Y60.149 E92.63602
G0 F7200 X50.174 Y60.5
G1 F900 X52.951 Y59.595 E92.98651
G1 X71.928 Y59.626 E95.26375
G1 X74.783 Y59.924 E95.60821
G1 X77.037 Y60.48 E95.8868
G1 X80.283 Y61.824 E96.30839
G1 X83.077 Y63.588 E96.7049
G1 X84.744 Y65.019 E96.96854
G1 X87.184 Y67.893 E97.42095
G1 X88.719 Y70.483 E97.78223
G1 X89.666 Y72.796 E98.08215
G1 X90.511 Y76.412 E98.52776
G1 X90.701 Y79.006 E98.83988
G1 X90.669 Y144.655 E106.71776
G1 X90.341 Y147.644 E107.07859
G1 X89.752 Y149.957 E107.36501
G1 X88.628 Y152.681 E107.71862
G1 X86.632 Y155.856 E108.16866
G1 X84.707 Y158.006 E108.51496
G1 X82.773 Y159.627 E108.81778
G1 X79.605 Y161.528 E109.26113
G1 X77.804 Y162.273 E109.49501
G1 X73.784 Y163.233 E109.99098
G1 X71.815 Y163.388 E110.22799
G1 X53.008 Y163.405 E112.48483
G1 X51.282 Y163.031 E112.69675
G1 X49.672 Y162.049 E112.92306
G1 X47.786 Y160.105 E113.24808
G1 X46.891 Y157.344 E113.59637
G1 X46.891 Y65.359 E124.63457
G1 X47.739 Y62.865 E124.95068
G1 X50.174 Y60.5 E125.35802
G0 F7200 X50.387 Y60.851
G1 F900 X53.013 Y59.995 E125.68946
G1 X71.886 Y60.024 E127.95422
G1 X74.741 Y60.322 E128.29868
G1 X76.884 Y60.85 E128.56353
G1 X80.13 Y62.194 E128.98512
G1 X82.816 Y63.892 E129.36644
G1 X84.483 Y65.323 E129.63008
G1 X86.84 Y68.097 E130.06689
G1 X88.349 Y70.635 E130.42122
G1 X89.276 Y72.887 E130.71346
G1 X90.121 Y76.503 E131.15907
G1 X90.301 Y79.006 E131.46021
G1 X90.271 Y144.612 E139.33293
G1 X89.953 Y147.545 E139.68695
G1 X89.364 Y149.858 E139.97337
G1 X88.289 Y152.469 E140.3122
G1 X86.334 Y155.59 E140.75413
G1 X84.45 Y157.699 E141.09349
G1 X82.516 Y159.32 E141.39631
G1 X79.452 Y161.158 E141.82507
G1 X77.651 Y161.903 E142.05895
G1 X73.753 Y162.834 E142.53986
G1 X71.784 Y162.989 E142.77688
G1 X53.051 Y163.005 E145.02484
G1 X51.431 Y162.654 E145.22375
G1 X49.926 Y161.736 E145.43529
G1 X48.138 Y159.893 E145.74343
G1 X47.291 Y157.28 E146.07305
G1 X47.291 Y65.426 E157.09553
G1 X48.087 Y63.085 E157.39225
G1 X50.387 Y60.851 E157.77701
G0 F7200 X50.6 Y61.202
G1 F900 X53.075 Y60.395 E158.0894
G1 X71.844 Y60.422 E160.34168
G1 X74.699 Y60.72 E160.68614
G1 X76.731 Y61.22 E160.93726
G1 X79.977 Y62.564 E161.35884
G1 X82.555 Y64.196 E161.72498
G1 X84.222 Y65.627 E161.98862
G1 X86.496 Y68.302 E162.40993
G1 X87.979 Y70.788 E162.7573
G1 X88.886 Y72.978 E163.04175
G1 X89.731 Y76.594 E163.48736
G1 X89.901 Y79.006 E163.77751
G1 X89.873 Y144.569 E171.64507
G1 X89.565 Y147.446 E171.99229
G1 X88.976 Y149.759 E172.27871
G1 X87.95 Y152.257 E172.60277
G1 X86.035 Y155.324 E173.03666
G1 X84.193 Y157.392 E173.36898
G1 X82.259 Y159.013 E173.6718
G1 X79.299 Y160.788 E174.08597
G1 X77.498 Y161.533 E174.31985
G1 X73.722 Y162.435 E174.78572
G1 X71.753 Y162.59 E175.02273
G1 X53.094 Y162.605 E177.26181
G1 X51.58 Y162.277 E177.44771
G1 X50.18 Y161.423 E177.6445
G1 X48.49 Y159.681 E177.93575
G1 X47.691 Y157.216 E178.2467
G1 X47.691 Y65.493 E189.25346
G1 X48.435 Y63.305 E189.53078
G1 X50.6 Y61.202 E189.89297
G0 F7200 X50.813 Y61.553
G1 F900 X53.137 Y60.795 E190.18631
G1 X71.803 Y60.82 E192.42623
G1 X74.604 Y61.109 E192.76414
G1 X76.578 Y61.59 E193.00795
G1 X79.824 Y62.934 E193.42954
G1 X82.294 Y64.5 E193.78049
G1 X83.961 Y65.931 E194.04412
G1 X86.152 Y68.507 E194.44993
G1 X87.635 Y70.993 E194.7973
G1 X88.497 Y73.07 E195.06715
G1 X89.332 Y76.622 E195.50501
G1 X89.501 Y79.006 E195.79181
G1 X89.475 Y144.527 E203.65433
G1 X89.177 Y147.347 E203.99462
G1 X88.588 Y149.66 E204.28103
G1 X87.61 Y152.046 E204.59047
G1 X85.736 Y155.058 E205.01616
G1 X83.936 Y157.085 E205.34146
G1 X82.002 Y158.706 E205.64428
G1 X79.146 Y160.418 E206.04386
G1 X77.345 Y161.163 E206.27774
G1 X73.691 Y162.036 E206.72856
G1 X71.722 Y162.191 E206.96557
G1 X53.137 Y162.205 E209.19577
G1 X51.729 Y161.9 E209.36865
G1 X50.434 Y161.11 E209.55069
G1 X48.842 Y159.469 E209.82505
G1 X48.091 Y157.152 E210.11733
G1 X48.091 Y65.56 E221.10837
G1 X48.783 Y63.525 E221.3663
G1 X50.813 Y61.553 E221.70592
G0 F7200 X51.026 Y61.904
G1 F900 X53.199 Y61.195 E221.9802
G1 X71.762 Y61.218 E224.20777
G1 X74.51 Y61.498 E224.53923
G1 X76.425 Y61.96 E224.77563
G1 X79.671 Y63.304 E225.19722
G1 X82.033 Y64.804 E225.53298
G1 X83.7 Y66.235 E225.79662
G1 X85.808 Y68.712 E226.18692
G1 X87.291 Y71.198 E226.53429
G1 X88.108 Y73.162 E226.78955
G1 X88.933 Y76.65 E227.21966
G1 X89.101 Y79.006 E227.5031
G1 X89.077 Y144.486 E235.3607
G1 X88.789 Y147.248 E235.69393
G1 X88.2 Y149.561 E235.98035
G1 X87.27 Y151.835 E236.27517
G1 X85.437 Y154.792 E236.69266
G1 X83.637 Y156.819 E237.01796
G1 X81.796 Y158.363 E237.30629
G1 X78.993 Y160.048 E237.69875
G1 X77.192 Y160.793 E237.93263
G1 X73.66 Y161.637 E238.3684
G1 X71.691 Y161.792 E238.60541
G1 X53.18 Y161.805 E240.82673
G1 X51.878 Y161.523 E240.98659
G1 X50.688 Y160.797 E241.15387
G1 X49.194 Y159.257 E241.41134
G1 X48.491 Y157.088 E241.68495
G1 X48.491 Y65.627 E252.66027
G1 X49.131 Y63.745 E252.89882
G1 X51.026 Y61.904 E253.21586
G0 F7200 X51.239 Y62.255
G1 F900 X53.261 Y61.595 E253.4711
G1 X71.722 Y61.616 E255.68642
G1 X74.416 Y61.887 E256.01133
G1 X76.331 Y62.349 E256.24772
G1 X79.517 Y63.673 E256.66174
G1 X81.772 Y65.108 E256.98249
G1 X83.439 Y66.539 E257.24612
G1 X85.464 Y68.917 E257.62093
G1 X86.947 Y71.403 E257.9683
G1 X87.719 Y73.255 E258.20907
G1 X88.534 Y76.679 E258.63143
G1 X88.701 Y79.006 E258.91139
G1 X88.679 Y144.445 E266.76407
G1 X88.401 Y147.149 E267.09026
G1 X87.812 Y149.462 E267.37668
G1 X86.93 Y151.625 E267.65699
G1 X85.138 Y154.526 E268.06617
G1 X83.338 Y156.553 E268.39147
G1 X81.589 Y158.02 E268.66541
G1 X78.84 Y159.678 E269.05064
G1 X77.039 Y160.423 E269.28452
G1 X73.629 Y161.238 E269.70525
G1 X71.66 Y161.393 E269.94226
G1 X53.223 Y161.405 E272.1547
G1 X52.027 Y161.146 E272.30154
G1 X50.942 Y160.484 E272.45407
G1 X49.546 Y159.045 E272.69465
G1 X48.891 Y157.024 E272.94959
G1 X48.891 Y65.694 E283.90919
G1 X49.479 Y63.965 E284.12834
G1 X51.239 Y62.255 E284.42281
G0 F7200 X51.452 Y62.606
G1 F900 X53.324 Y61.995 E284.65911
G1 X71.682 Y62.014 E286.86207
G1 X74.322 Y62.276 E287.18043
G1 X76.237 Y62.738 E287.41682
G1 X79.363 Y64.042 E287.82327
G1 X81.511 Y65.412 E288.129
G1 X83.178 Y66.843 E288.39263
G1 X85.12 Y69.122 E288.75194
G1 X86.603 Y71.608 E289.0993
G1 X87.349 Y73.408 E289.33312
G1 X88.135 Y76.708 E289.7402
G1 X88.301 Y79.006 E290.01668
G1 X88.281 Y144.405 E297.86456
G1 X88.013 Y147.05 E298.18358
G1 X87.424 Y149.363 E298.47
G1 X86.56 Y151.473 E298.7436
G1 X84.839 Y154.26 E299.13667
G1 X83.039 Y156.287 E299.46197
G1 X81.382 Y157.678 E299.72159
G1 X78.687 Y159.308 E300.09954
G1 X76.886 Y160.053 E300.33342
G1 X73.598 Y160.839 E300.7391
G1 X71.629 Y160.994 E300.97611
G1 X53.266 Y161.005 E303.17967
G1 X52.176 Y160.769 E303.3135
G1 X51.196 Y160.171 E303.45126
G1 X49.898 Y158.833 E303.67496
G1 X49.291 Y156.96 E303.91123
G1 X49.291 Y65.761 E314.85511
G1 X49.827 Y64.185 E315.05487
G1 X51.452 Y62.606 E315.32676
G0 F7200 X51.665 Y62.957
G1 F900 X53.387 Y62.395 E315.54413
G1 X71.643 Y62.412 E317.73485
G1 X74.228 Y62.665 E318.04653
G1 X76.143 Y63.127 E318.28293
G1 X79.148 Y64.38 E318.67362
G1 X81.25 Y65.716 E318.9725
G1 X82.917 Y67.147 E319.23613
G1 X84.777 Y69.327 E319.58001
G1 X86.233 Y71.761 E319.92036
G1 X86.979 Y73.561 E320.15418
G1 X87.736 Y76.737 E320.54597
G1 X87.901 Y79.006 E320.81897
G1 X87.883 Y144.365 E328.66205
G1 X87.625 Y146.951 E328.97391
G1 X87.036 Y149.264 E329.26033
G1 X86.19 Y151.321 E329.52723
G1 X84.54 Y153.995 E329.90428
G1 X82.781 Y155.981 E330.22264
G1 X81.174 Y157.336 E330.47488
G1 X78.534 Y158.938 E330.84545
G1 X76.733 Y159.683 E331.07933
G1 X73.567 Y160.44 E331.46996
G1 X71.598 Y160.595 E331.70697
G1 X53.309 Y160.605 E333.90165
G1 X52.327 Y160.392 E334.02223
G1 X51.448 Y159.856 E334.14577
G1 X50.249 Y158.62 E334.35241
G1 X49.691 Y156.899 E334.56952
G1 X49.691 Y65.828 E345.49804
G1 X50.175 Y64.405 E345.6784
G1 X51.665 Y62.957 E345.92773
G0 F7200 X51.878 Y63.308
G1 F900 X53.45 Y62.795 E346.12616
G1 X71.605 Y62.81 E348.30476
G1 X74.134 Y63.054 E348.60965
G1 X76.049 Y63.516 E348.84604
G1 X78.934 Y64.718 E349.22109
G1 X80.989 Y66.02 E349.51302
G1 X82.656 Y67.451 E349.77665
G1 X84.472 Y69.586 E350.113
G1 X85.863 Y71.914 E350.43843
G1 X86.609 Y73.714 E350.67224
G1 X87.337 Y76.766 E351.04876
G1 X87.501 Y79.006 E351.31828
G1 X87.485 Y144.326 E359.15668
G1 X87.237 Y146.852 E359.46125
G1 X86.648 Y149.165 E359.74767
G1 X85.82 Y151.168 E360.00776
G1 X84.2 Y153.784 E360.377
G1 X82.523 Y155.675 E360.6803
G1 X80.916 Y157.03 E360.93254
G1 X78.381 Y158.568 E361.28835
G1 X76.58 Y159.313 E361.52223
G1 X73.536 Y160.041 E361.89781
G1 X71.567 Y160.196 E362.13482
G1 X53.352 Y160.205 E364.32062
G1 X52.478 Y160.015 E364.42795
G1 X51.7 Y159.541 E364.53727
G1 X50.6 Y158.407 E364.72686
G1 X50.091 Y156.838 E364.92479
G1 X50.091 Y65.895 E375.83795
G1 X50.523 Y64.625 E375.99893
G1 X51.878 Y63.308 E376.22568
G0 F7200 X52.091 Y63.659
G1 F900 X53.513 Y63.195 E376.40517
G1 X71.567 Y63.208 E378.57166
G1 X74.04 Y63.443 E378.86975
G1 X75.955 Y63.905 E379.10615
G1 X78.72 Y65.056 E379.46555
G1 X80.728 Y66.324 E379.75053
G1 X82.395 Y67.755 E380.01416
G1 X84.129 Y69.792 E380.33517
G1 X85.493 Y72.067 E380.65348
G1 X86.239 Y73.867 E380.8873
G1 X86.938 Y76.795 E381.24853
G1 X87.101 Y79.006 E381.51457
G1 X87.087 Y144.288 E389.34841
G1 X86.849 Y146.754 E389.64571
G1 X86.278 Y149.012 E389.9252
G1 X85.45 Y151.015 E390.18528
G1 X83.9 Y153.519 E390.53867
G1 X82.265 Y155.369 E390.83495
G1 X80.658 Y156.724 E391.08719
G1 X78.228 Y158.198 E391.42824
G1 X76.427 Y158.943 E391.66212
G1 X73.505 Y159.642 E392.02266
G1 X71.536 Y159.797 E392.25967
G1 X53.396 Y159.805 E394.43647
G1 X52.629 Y159.638 E394.53066
G1 X51.949 Y159.224 E394.6262
G1 X50.951 Y158.195 E394.79821
G1 X50.491 Y156.777 E394.9771
G1 X50.491 Y65.962 E405.8749
G1 X50.871 Y64.845 E406.01649
G1 X52.091 Y63.659 E406.22066
G0 F7200 X52.304 Y64.01
G1 F900 X53.576 Y63.595 E406.38122
G1 X71.53 Y63.606 E408.5357
G1 X73.946 Y63.832 E408.82689
G1 X75.861 Y64.294 E409.06328
G1 X78.507 Y65.394 E409.40715
G1 X80.467 Y66.628 E409.68508
G1 X82.134 Y68.059 E409.94871
G1 X83.786 Y69.998 E410.25439
G1 X85.123 Y72.22 E410.56558
G1 X85.869 Y74.02 E410.7994
G1 X86.539 Y76.825 E411.14547
G1 X86.701 Y79.006 E411.40791
G1 X86.689 Y144.25 E419.23719
G1 X86.461 Y146.657 E419.52732
G1 X85.908 Y148.859 E419.79976
G1 X85.08 Y150.862 E420.05985
G1 X83.6 Y153.255 E420.39749
G1 X82.007 Y155.063 E420.68665
G1 X80.4 Y156.418 E420.9389
G1 X78.075 Y157.828 E421.26519
G1 X76.274 Y158.573 E421.49907
G1 X73.474 Y159.243 E421.84456
G1 X71.505 Y159.398 E422.08157
G1 X53.44 Y159.405 E424.24937
G1 X52.78 Y159.261 E424.33043
G1 X52.198 Y158.907 E424.41218
G1 X51.302 Y157.983 E424.56663
G1 X50.891 Y156.716 E424.72647
G1 X50.891 Y66.029 E435.60891
G1 X51.219 Y65.065 E435.7311
G1 X52.304 Y64.01 E435.9127
G0 F7200 X52.517 Y64.361
G1 F900 X53.639 Y63.995 E436.05433
G1 X71.493 Y64.004 E438.19681
G1 X73.852 Y64.221 E438.48108
G1 X75.767 Y64.683 E438.71747
G1 X78.294 Y65.733 E439.04585
G1 X80.206 Y66.932 E439.31667
G1 X81.873 Y68.363 E439.58031
G1 X83.444 Y70.205 E439.87082
G1 X84.753 Y72.373 E440.17473
G1 X85.499 Y74.173 E440.40854
G1 X86.14 Y76.855 E440.73945
G1 X86.301 Y79.006 E440.99829
G1 X86.291 Y144.213 E448.82313
G1 X86.073 Y146.56 E449.10598
G1 X85.538 Y148.706 E449.37138
G1 X84.71 Y150.709 E449.63147
G1 X83.299 Y152.991 E449.95343
G1 X81.749 Y154.757 E450.2354
G1 X80.142 Y156.112 E450.48764
G1 X77.922 Y157.458 E450.79918
G1 X76.121 Y158.203 E451.03306
G1 X73.443 Y158.844 E451.3635
G1 X71.474 Y158.999 E451.60051
G1 X53.484 Y159.005 E453.75931
G1 X52.931 Y158.884 E453.82724
G1 X52.447 Y158.59 E453.89519
G1 X51.653 Y157.771 E454.03208
G1 X51.291 Y156.655 E454.17287
G1 X51.291 Y66.096 E465.03995
G1 X51.567 Y65.285 E465.14275
G1 X52.517 Y64.361 E465.30178
G0 F7200 X52.73 Y64.712
G1 F900 X53.702 Y64.395 E465.42446
G1 X71.457 Y64.402 E467.55506
G1 X73.758 Y64.61 E467.83231
G1 X75.673 Y65.072 E468.0687
G1 X78.082 Y66.072 E468.3817
G1 X79.945 Y67.236 E468.64531
G1 X81.612 Y68.667 E468.90894
G1 X83.102 Y70.412 E469.18429
G1 X84.383 Y72.526 E469.48091
G1 X85.129 Y74.326 E469.71473
G1 X85.741 Y76.885 E470.03047
G1 X85.901 Y79.006 E470.28571
G1 X85.893 Y144.177 E478.10623
G1 X85.685 Y146.464 E478.38181
G1 X85.168 Y148.553 E478.64005
G1 X84.34 Y150.556 E478.90014
G1 X82.998 Y152.728 E479.20651
G1 X81.491 Y154.451 E479.4812
